X:1
T:Pentecostal Battle Song
T:Seeley Daniel Kinne
T:Pentecostal Battle Song
T:Public Domain
T:Public Domain
T:Public Domain
T:Public Domain
C:Seeley Daniel Kinne
Z:Public Domain
%%score ( 1 2 ) ( 3 4 )
L:1/8
M:3/4
K:E
V:1 treble 
V:2 treble 
V:3 bass 
V:4 bass 
V:1
 [GB]/ | [GB]>[GB] [GB]>[GB] (3(Bc)[Ad] | [Ge]2 [GB]3 [GB]/ | [GB]>[GB] [GB]>[GB] [FA]>[GB] | %4
w: 1.~Through-|out the world to- day * is|ing, God’s Pen-|te- cost- al bu- gle note,|
w: 2.~The|King of Heav- en earth- * ward|es, His feet|are in the clouds to- day,|
w: 3.~Up|at the voice of thy * Com-|er, The fin-|al con- flict now is on;|
w: 4.~And|by His power all wrongs * re-|ing, He soon|will seal the aw- ful fate|
w: 5.~Strong|in the Gos- pel’s full * pro-|sion, Pre- pared|for that e- vent- ful hour;|
 [EG]4- [EG]>[GB] | [Ac]>[Ac] [Ac]>[Ac] (3([ce][Bd])[Ac] | [GB]2 [EG]3 [GB]/ | %7
w: The * wis-|dom of the wise con- * found-|ing— O hear|
w: And * soon|be- neath time’s crumb- ling * arch-|es, He’ll lead|
w: No * more|to crea- ture com- forts * pan-|der, Truth’s vic-|
w: Of * de-|mon hosts a- round us * press-|ing, Ma- lig-|
w: March * with|a bold and firm de- * ci-|sion, Armed with|
 [Ac]>[GB] [FA]3 [GB] | [EG]4- [EG]>[GB] | [Ad]>[Ad] [Ad]>[Ad] (3(dc)[AB] | [Ge]2 [GB]3 [GB]/ | %11
w: it swell and float.|A- * bove|the din of earth’s com- * mo-|The mid- night|
w: us to the fray.|Sol- * diers|of Christ pre- pare for * bat-|A sound of|
w: t’ry must be won.|Fear * not|the foe, but trust thy * Lead-|The Lord of|
w: nant in their hate.|Press * on|to- ward the King’s high * call-|With love’s am-|
w: the Spir- it’s power.|The * glad|and wel- come news pro- * claim-|In ev- ery|
 [GB]>[GB] [GB]>[GB] (3([GB][FA])[EG] | [DF]4- [DF]>[GB] | [GB]>[GB] [GB]>[GB] (3(Bc)[Ad] | %14
w: cry we soon shall hear; * A-|rise * and|prove thy love’s de- vo- * tion—|
w: strife is in the air; * We|smell * the|smoke and hear the rat- * tle,|
w: hosts just at thy side, * Who|comes * to|win— blest In- ter- ced- * er—|
w: bi- tion in thy soul; * Press|on * while|foes a- round are fall- * ing—|
w: land from sea to sea; * The|Con- * queror|comes in gar- ments flam- * ing|
 [Ge]2 [GB]3 [GB]/ | [GB]>[GB] [Ac]3 [AB] | [Ge]4 ||[M:4/4]"^Refrain" [B,E]2 | (E2 D2 C2) B,2 | %19
w: day of Christ|is near. * *||||
w: warns us to|pre- pare. A- rise!|A-|rise!|Ye * * heirs|
w: mil- i- ta-|ry bride. * *||||
w: on to- ward|the goal. * *||||
w: bring earth’s ju-|bi- lee. * *||||
 (E2 G2 E2) [B,E]2 | (3(FE)[DF] [EG]2 [B,E]2 E2 | [DF]>[DF] [B,E]>[DF] [EG]3 ||[M:3/4] [GB]/ | %23
w: ||||
w: ry— * * The|groom’s * at the door! Sal-|glad and bless- èd sto-|ry,|
w: ||||
w: ||||
w: ||||
 [GB]>[GB] [Ac]>[GB] [FA]>[FA] | [DF]2 [DB]3 [GB] | [GB]>[GB] [EG]2 [DF]2 | [B,E]4- [B,E]3/2 |] %27
w: ||||
w: Pro- claim a- broad once more.||||
w: ||||
w: ||||
w: ||||
V:2
 x/ | x4 A2 | x11/2 | x6 | x6 | x6 | x11/2 | x6 | x6 | x4 A2 | x11/2 | x6 | x6 | x4 A2 | x11/2 | %15
w: |sound-||||||||tion||||The||
w: |march-||||||||tle;||||That||
w: |mand-||||||||er—||||A||
w: |dress-||||||||ing,||||Press||
w: |vi-||||||||ing,||||To||
 x6 | x4 ||[M:4/4] x2 | G6 B,2 | B6 x2 | D2 x10/3 E2 x2/3 | x7 ||[M:3/4] x/ | x6 | x6 | x6 | %26
w: |||||||||||
w: |||of glo-|Bride-|va- tion’s||||||
w: |||||||||||
w: |||||||||||
w: |||||||||||
 x11/2 |] %27
w: |
w: |
w: |
w: |
w: |
V:3
 [E,E]/ | [E,B,]>[E,E] [E,E]>[E,E] (3:2:2[B,D]2 [B,D] | [E,E]2 [E,B,]3 [E,E]/ | %3
w: ~|~ ~ ~ ~ ~ ~|~ ~ ~|
 [E,B,]>[E,B,] [E,B,]>[E,B,] [B,,B,]>[B,,B,] | [E,B,]4- [E,B,]>[E,E] | %5
w: ~ ~ ~ ~ ~ ~|~ * ~|
 [A,E]>[E,E] [E,E]>[E,E] (3:2:2[A,E]2 [A,E] | [E,E]2 [E,B,]3 [E,B,]/ | %7
w: ~ ~ ~ ~ ~ ~|~ ~ ~|
 [E,B,]>[E,B,] [B,,B,]3 [B,,B,] | [E,B,]4- [E,B,]>[E,E] | %9
w: ~ ~ ~ ~|~ * ~|
 [F,D]>[F,D] [B,D]>[B,D] (3:2:2[B,D]2 [B,D] | [E,E]2 [E,B,]3 [E,E]/ | %11
w: ~ ~ ~ ~ ~ ~|~ ~ ~|
 [E,E]>[E,E] [E,E]>[E,E] (3:2:2[E,B,]2 [E,B,] | B,4- B,>[E,E] | %13
w: ~ ~ ~ ~ ~ ~|~ * ~|
 [E,E]>[E,E] [E,E]>[E,E] (3:2:2[B,D]2 [B,D] | [E,E]2 [E,B,]3 [E,B,]/ | [B,,B,]>B, [B,D]3 [B,D] | %16
w: ~ ~ ~ ~ ~ ~|~ ~ ~|~ ~ ~ ~|
 [E,E]4 ||[M:4/4] E,2 | E,2 D,2 C,2 B,,2 | E,2 B,,2 E,2 [E,G,]2 | %20
w: ~|a-|~ ~ a- rise!||
 (3:2:2[B,,B,]2 [B,,B,] [E,B,]2 [E,G,]2 [E,G,]2 | [B,,B,]>[B,,B,] [B,,G,]>[B,,A,] [E,B,]3 || %22
w: ||
[M:3/4] [E,B,]/ | [B,,B,]>[B,,B,] [B,,B,]>[B,,B,] [B,,B,]>[B,,B,] | [B,,B,]2 [B,,B,]3 [B,,B,] | %25
w: |||
 [B,,B,]>[B,,B,] [B,,B,]2 [B,,A,]2 | [E,G,]4- [E,G,]3/2 |] %27
w: ||
V:4
 x/ | x6 | x11/2 | x6 | x6 | x6 | x11/2 | x6 | x6 | x6 | x11/2 | x6 | B,4- B,3/2 x/ | x6 | x11/2 | %15
w: ||||||||||||~ *|||
 x3/2 B,/ x4 | x4 ||[M:4/4] E,2 | E,2 D,2 C,2 B,,2 | G,6 x2 | x8 | x7 ||[M:3/4] x/ | x6 | x6 | x6 | %26
w: ~||rise!|||||||||
 x11/2 |] %27
w: |

